X:21054 
T:FAREWELL TO IRELAND (reel)
B:DMI.0805
Z:Nordberg/Black
N:As you probably know, this tune is played today with 
a 4th part (per the Bothy Band arrangement) which involves
a key (or, more accurately, mode) change to A mix. I have
added my version of it to the 'simplified' setting. 
R:reel
%Q:1/4=180
M:C|
L:1/8
K:G
"A dorian"
P:simplified version
B,|A,3B, EDEF|GEDB, G,B,DB,|A,G,A,C D2AF|GEDB, EA,A,2|
A,G,A,C E2EF|GEDB, DG,G,g|edeg abaf|gedf eAA||
P:2
g|a2ab agef|gage dBGg|agab aged|gedB A2Ag|
agef g2fe|dedB GABd|cAdB ecAa|gedB BAA||
P:3
d|eAA2 edce|dGG2 BGBd|eAcd edBa|gedB ABcd|
eAA2 edce|dedB GABd|cAdB ecAa|gedB BAA2|]
P:4 (not included in DMI)
K:D
"A mix"
aece aece|g2gf gdBd|aece aece|gfgd BAA2|
agef gfge|dBB2 GBB2|ABcd eaaf|gfgd BAA2||

%%vskip
P:Source version
B,|A,3B, EDEF|GEDB, G,B,DB,|A,G, (3A,B,C D2 AF|GEDB, EA,-A,2|
A,G,A,C E2EF|GEDB, DG,G,g|ed (3efg abaf|(3gfe df eAA||
P:2
g|a2ab agef|ga (3gfe dBGg|agab aged|gedB (3AAA Ag|
agef g2fe|dedB GABd|cA (3dcB ecAa|gedB BAA||
P:3
d|eA (3AAA edce|dG (3GGG BGBd|eAcd edBa|(3gfe dB ABcd|
eA (3AAA edce|dedB GABd|cA (3dcB ecAa|(3gfe dB BAA|]
%


%%%

